X:409
T:Short Grass, The
R:jig
Z:hn-jig-409
M:6/8
L:1/8
K:C
cGE cGE|EDE CEG|cGE cGE|Ddd ded|
cGE cGE|EDE CEG|cee e2d|1 cAA A2B:|2 cAA A3||
|:G2g ged|ecc ceg|~a3 age|edd def|
~g3 ged|ecc cde|fed e2d|1 cAA A3:|2 cAA A2B||
P:variations
|:cGE cGE|EDE CEG|cGE cGE|Add d2B|
cGE cGE|EDE CEG|cee ged|1 cAA A2B:|2 cAA A3||
|:~g3 ged|ecc ceg|aba age|edd def|
gag ged|ecc cde|fgf e2d|1 cAA A3:|2 cAA A2B||

